X:1
T:Treemonisha - Overture
T:TREEMONISHA.
T:No 1. Overture.
T:By  SCOTT   JOPLIN
T:Public Domain
T:Public Domain
T:Public Domain
T:Public Domain
T:Public Domain
T:Public Domain
T:Public Domain
T:Public Domain
T:Public Domain
T:Public Domain
T:Public Domain
T:Public Domain
T:Public Domain
T:Public Domain
T:Public Domain
T:Public Domain
T:Public Domain
C:Scott Joplin
Z:Public Domain
%%score { ( 1 3 5 6 ) | ( 2 4 ) }
L:1/8
Q:1/4=92
M:2/4
K:Bb
V:1 treble nm="Piano" snm="Pno."
V:3 treble 
V:5 treble 
V:6 treble 
V:2 bass 
V:4 bass 
V:1
"^Allegretto."!mf! z4 | z4 | (B>G) (F/f)d/ | c(B/g/-) g/(f/d/c/) | (B>G) (F/f)d/ | cB/F/- FF | %6
 [F=Bdf]2 [_ABf_a][FBdf] | !///-![=Bd^f]3/2 ^F3/2 [Bdf] | [=F=Bd=f]2 [_ABf_a][FBdf] | %9
 !///-![=Bd^f]3/2 ^F3/2 [G_B=eg] | %10
 ([=e=e']/[ff']/[^f^f']/[^d^d']/ [=d=d']/[_e_e']/[=e=e']/[^c^c']/) | %11
 ([=c=c']/[^c^c']/[dd']/[=B=b]/ [^A^a]/[=B=b]/[=c=c']/[=A=a]/) | %12
 ([^G^g]/[Aa]/[_B_b]/[=G=g]/ [^F^f]/[Gg]/[_A_a]/[=F=f]/) | [Ff]/[_E_e][Gg]/ [Ff]/[Ee][G,G]/ | %14
 [_G,_G]/[F,F]/[G,G]/[F,F]/ [=E,=E]/[F,F]/[E,E]/[F,F]/ | %15
 [_G_g]/[Ff]/[Gg]/[Ff]/ [=E=e]/[Ff]/[Ee]/[Ff]/ | [FBd][FBd] [FBd][FBd] | [FBd][FBd] [FBd][FBd] | %18
 [FBd][FBd] [FBd][FBd] | [FBd][FBd] [FBd][F=Bd] | (!>!d^f) (!>!dg) | !>!g(e'/d'/ c'/=b/c'/g/) | %22
 (!>!eg) (!>!e_a) | !>!_a(_f'/e'/ _d'/c'/d'/_a/) | (g/_g/f/=e/-) e2 | (^f/=f/=e/_e/-) e2 | %26
 (=f/=e/_e/d/-) d2 | [Ace]2 [=F=Bd][FBd] | (!>!d^f) (!>!dg) | !>!g(e'/d'/ c'/=b/c'/g/) | %30
 (!>!eg) (!>!e_a) | !>!_a(_f'/e'/ _d'/c'/d'/a/) | (g/_g/f/=e/-) e2 | (^f/=f/=e/_e/-) e2 | %34
 (=f/=e/_e/d/-) d2 | z/ (=B/d/f/) !>![^G^g] z |[Q:1/4=80]"^Meno mosso"!mp! ([=E^G]4 | [=EA]4) | %38
 ([=E^G]4 |!<(! !>![A,=EA]2) !>![EAc]2!<)! |!f! !>![c_ea]!>![ce^fc'] !>![efae']!>![cfac'] | %41
 !>![cea] !>![ce^f]2 !>![efc'] | !>![d=f=b]!>![df^gd'] !>![fg=bf']!>![dgbd'] | %43
 !>![df=b] !>![df^g]2 !>![fgd'] | !>![=e=g^c']!>![eg_b=e'] !>![gb^c'g']!>![ebc'e'] | %45
 !>![=eg^c'] !>![egb]2 z || %46
[K:Bb][M:4/4][Q:1/4=84]"^Adagio."!f! [GB^cg]3 [=EBc=e] ([Bceb]3 [Gceg]) | %47
 ([^c=eg^c']3 [Begb]) [GB^cg][Bb][Bb][Bb] | z ([bb'][_a_a'][gg']) ([gg'][cc'][_d_d'][cc']) | %49
"_dim." z (B_AG) (GC_DC) ||[K:Bb][M:2/4]!mp![Q:1/4=92]"^Allegretto." (F>_D) (C/c)_A/ | %51
 G(F/_d/-) (d/c/_A/G/) | (F>_D) (C/c)_A/ | GF/C/- C/c/_e/c'/ | %54
!f![Q:1/4=80]"^Meno mosso." !>![ce=a]!>![ce^fc'] !>![efae']!>![cfac'] | %55
 !>![cea] !>![ce^f]2 !>![efc'] | !>![d=f=b]!>![df^gd'] !>![fg=bf']!>![dgbd'] | %57
 !>![df=b] !>![df^g]2 !>![fgd'] | !>![=e=g^c']!>![eg_b=e'] !>![gb^c'g']!>![ebc'e'] | %59
 !>![=eg^c'] !>![egb]2 [egb=e']- | [egbe'] z[K:bass] (6:4:6(=E,/F,/^F,/=G,/^G,/=A,/) | %61
[K:treble] B,/_D/=E/B,/ A,/C/E/A,/ | B,/_D/=E/B,/ A,/C/E/A,/ | B,/_D/=E/B,/ A,/C/E/F/ | %64
 !>![FA=Bf] !>![FABf]2 !>![FABf] | !>![=E^G=B=e] z z2 | z4 | !fermata!z4 || %68
[K:C][M:4/4]!mp![Q:1/4=60]"^Largo con espressione" z2 (E>^D (E3) =F) | F2 (E/F/^F/G/) (A>c E2-) | %70
 E z (E>^D (E3) G) | z/ (E/!<(!F/G/ B/e/d/c/!<)! B/c/B/A/!>(! G/A/G/F/)!>)! | %72
!mp! [CE] z (E>^D E2-) E!>!E | !^![^A,E]2!mf! ([^CE]/[^B,^D]/[CE]/[A,^F]/) (^D>F) [=B,=D^G]2- | %74
 [B,DG]2 (^G>^F)!<(! [F^d] [E^c]2 (c/!<)!d/) | B4!>(! (BA[EG]!>)![DF]) | %76
!mp! [CE] z (E>^D (E3) =F) | F2 (E/F/^F/G/) (A>c E2-) | E z (E>^D) (([B,E]3 [E^G])) | %79
 A4- A!>!A!>!B!>!c | !>![Fd] z!f! (f>e d3) d | %81
 [=Gd]2 (d/_B/c/d/)!<(! [EG_B_d]>[_DGBd] [DGBd]2-!<)! | %82
 [DGBd]2!ff! !///-![^fac']2 c2 !///-![=f_ac']- c- | %83
 !///-![fac'] c !///-![f_ab]2 B2 !///-![fgb]- B- | %84
 !///-![fgb] B !///-![eg_b]2 _B2 !///-![_e_gb]- B- | !///-![egb] B !///-![_e_ga]3 A3 | %86
 ([_e_ga]/g/e/c/ A/c/e/g/) (a/g/e/c/ A/c/e/g/) | %87
[Q:1/4=55]"_dim." (f/d/B/^G/ B/^A/B/d/) (f/d/B/c/ d/B/=G/!fermata!F/) | %88
[Q:1/4=60]"_a tempo" (3(E/G/c/e-) (e/g/c'/[ee']/) [_e_e'][cc']/[Aa]/ (6:4:6(A/G/F/F/G/F/) | %89
 (3(=E/G/c/=e-) (e/g/c'/[ee']/) [_e_e'][cc']!<(! [ee'][cc']!<)! | %90
 [_e_e'][cc'] [ee'][cc'] (3(G/_A/G/!>(!F-) (F/c/_B/A/)!>)! | %91
!p! GG/_A/ _B/=A/B/_A/ GG/A/!<(! B/=A/B/=B/!<)! |!mf! (c/A/^F) [FA]2- [FA][FA] c/d/_e | %93
 c/A/^F [FA]2- [FA][FA] c/d/_e |!<(! (([A=e]3 [^Gf]-)) [Gf] [Ae]2!<)! [AB^d] | %95
!f! [^GBe] z[Q:1/4=50] E/F/E/^D/ E2 !fermata![B,=G]2 | %96
!mp![Q:1/4=60]"^a tempo" (3(E/G/c/e-) (e/g/c'/[ee']/) [_e_e'][cc']/[Aa]/ (6:4:6(A/G/F/F/G/F/) | %97
 (3(=E/G/c/=e-) (e/g/c'/[ee']/)!<(! [_e_e'][cc'] [ee'][cc']!<)! | %98
 [_e_e'][cc'] [ee'][cc'] (3(G/_A/!>(!G/F-) (F/c/!>)!_B/A/) | %99
!p! GG/_A/ _B/=A/B/_A/ GG/A/!<(! B/=A/B/=B/!<)! |!mf! c/A/^F [FA]2- [FA][FA] c/d/_e | %101
 c/A/^F [FA]2- [FA][FA] c/d/_e |!<(! (([A=e]3 [^Gf])) [Ae] [Ae]2!<)! [Ec] | %103
!f! (A/c/^d/^f/ a/c'/^d'/^f'/ a'/f'/d'/c'/ a/f/d/c/) | %104
 (A/c/^d/^f/ a/c'/^d'/^f'/ a'/f'/d'/c'/ a/f/d/c/) | %105
 (_A/c/=d/=f/ _a/c'/=d'/=f'/ _a'/f'/d'/c'/ a/f/c/A/) | %106
 (G/c/d/e/ g/c'/d'/e'/ g'/e'/d'/c'/ g/e/d/c/) | %107
 (G/B/d/f/g/b/d'/f'/a'/g'/f'/d'/b/g/a/g/f/d/B/G/A/G/F/D/[I:staff +1]B,/G,/F,/D,/B,,/A,/G,/F,/D,/B,,/ !fermata!G,,4) | %108
!mp![I:staff -1] z2 (E>^D (E3) =F) | F2 (E/F/^F/G/) (A>c) E2- | E z (E>^D (E3) G) | %111
 z/ (E/!<(!F/G/ B/e/d/c/!<)! B/c/B/A/!>(! G/A/G/F/!>)! | [CE])!mp! z (E>^D E2-) E!^!E | %113
 !^![^A,E]2 ([^CE]/[^B,^D]/[CE]/[A,^F]/) (^D>F) [=B,=D^G]2- | %114
 [B,DG]2 (^G>^F)!<(! ([F^d] [E^c]2)!<)! c/d/ | B4!>(! (BA[EG][DF])!>)! | %116
!mp! [CE] z (E>^D (E3) =F) | F2 (E/F/^F/G/) (A>c) E2- | [CE] z (E>^D (([B,E]3) [E^G])) | %119
 A4- A!>!A!>!B!>!c | !>![Fd] z!f! ([Fd]>[DB] (c3) [ea]) | [c^da] z (a/d/^f/a/) (a>g) [_B^cg]2- | %122
 [Bcg]2 [_Beg]>[Af] [A=Bf]/[GBe]/[FBd]- !fermata![FBd][E=c] || %123
[M:2/4]!f![Q:1/4=92] [^D^Fc][Fc^d] [cd^f][cdfa] | [^cea]A/A/ AA | [^D^F=c][Fc^d] [cd^f][cdfa] | %126
 [^cea]A/A/ AA ||[K:D][M:2/4][Q:1/4=92]!mf! ([DFd]>B) A/[Aa]f/ | ed/[Bb]/- ([Bb]/[Aa]/[Ff]/[Ee]/) | %129
 ([DFd]>B) A/[Aa][Ff]/ | [Ee][Dd]/[A,DFA]/- (3[A,DFA]/A,/B,/=C | (=C/B,/_B,/A,/) (C/=B,/_B,/A,/-) | %132
 A,2- (3A,/=C/D/_E | (_E/D/_D/=C/) (E/=D/_D/C/-) | C2- (3C/_E/=F/^F | (F/^E/=E/^D/) (F/^E/=E/D/-) | %136
 D2-"_cresc." D/F/G | [E^A^ce]2- [EAce]/^G/=A | [E=A=ce]2- [EAce]/^A/B | %139
!f![Q:1/4=82]"^Meno mosso" z2 z/!mp! [=F^GBd]/ !fermata!z/ !fermata!z/ | %140
!f! z2 z/!mp! [_GA=c_e]/ !fermata!z/ !fermata!z/ | %141
!f! z2 z/ [=G^A^c=e]/!mp! !fermata!z/ !fermata!z/ | %142
!f! z2 z/ [_A=B=d=f]/!mp! !fermata!z/ !fermata!z/ || %143
[M:4/4]!f![Q:1/4=108]"^Adagio" [gbd'=f']2 [^fbd'^f']2 [gbd'e'] [g^a^c'e']2 [^f=a=c'_e'] | %144
 [=fa=c'_e']2 [=eac'=e']2 [=fac'd'] [f^gbd']2 [e=g_b_d'] | [=f_a=c']4- [fac'][eg_b_d']- [egbd']2 | %146
 [=f_a=c']4- [fac'][eg_b_d']- [egbd']2 | !///-![g_b=d']4 =d4 | %148
 [dad']2 [eac'e'][^fad'^f']- [fad'f']2 (ad') | !///-![g_bd']4 d4 | %150
 [fad'][eg^c'][egc'][g^ae'] ga^c'e' | [gbd'=f']2 [^fbd'^f']2 [gbd'e'] [g^a^c'e']2 [^f=a=c'_e'] | %152
 [=fa=c'_e']2 [=eac'=e']2 [=fac'd'] [f^gbd']2 [e=g_b_d'] | [=f_a=c']4- [fac'][eg_b_d']- [egbd']2 | %154
 [=f_a=c']4- [fac'][eg_b_d']- [egbd']2 | !///-![g_b=d']4 =d4 | %156
 [dad']2 [eac'e'][^fad'^f']- [fad'f']2 (ad') | !///-![g_bd']4 d4 | %158
 [^cg_b^c'][cgbc'][d=fbd'][_Bb] [=c=c'][Bb][Aa][Gg] | [Aa]2 [_B_b][Gg] [=F=f] [_E_e]2 [Dd] | %160
 [=C=c]2 [_B,_B][=F,=F]- [F,F]2 [F,F]2 | [^F,^F]2 [F,F][G,G] [A,A][_B,_B][B,B][=C=c] | %162
 [^CG_B^c][CGBc] [CGBc]2 [cg_b^c'][cgbc'] [cgbc']2 | !///-![=f_bd']4 d4 | %164
 !///-![=fad']3 d3 [^cga^c'][gg'] | [=fad'=f']4 [^f=c'_e'^f']2 [fae'f']2 | %166
 !///-![_bd'g']3 g3 !///-![ad'=f'] =f | (((!///-![_b^c'e']2 (e2 !///-![=bd'e']2))) e2) | %168
 (((!///-![bd'^e']2 (^e2 !///-![b^c'e']2))) e2) | [^ac'f'] z z2 z4 | FfFf Ff F2 || %171
[K:D][M:4/4][Q:1/4=100]"^Larghetto"!mp! (FBfd-) (dcBF) | c8 | c8 | d4- d2 F2 | %175
!<(! (FBfd-) (dcdf)!<)! |!mf! g8 | (g/e/c/B/) G2- GG [B,CG]2 | [^A,CF]2 FF F2 F2 | %179
!mp! (FBfd-) (dcBF) | c8 | c8 | d8 |!f! d4- [DGd][Gdg] [Fdf]2 | %184
 [=F=f]4- [FBdf][FBdf]!mf! [E_Bde]2 | [EAce]2 [^DA=c^d][DAcd]- [DAcd](D^FA) | %186
 ^A2 A2 !fermata!A2 z2 || %187
[K:D][M:6/8]!f![Q:1/8=116]"^Adagio" [^Ag^a]/[Aga]/[Aga]/[Geg]/[Geg]/[Ece]/- [Ece]/[Dd]/[Cc]/[B,B]/[^A,^A]/[=A,=A]/ | %188
 z/4 [^G,^G]/4z/4[B,B]/4 z/4 [Dd]/4z/4[=F=f]/4 z/4 [^G^g]/4z/4[Bb]/4 z/4 [=ca=c']/4z/4[cac']/4- [cac'][cac'] | %189
 [B^gb]/[Bgb]/[Bgb]/[^G=f^g]/[Gfg]/[=Fdf]/- [Fdf]/[_E_e]/[Dd]/[=C=c]/[B,B]/[_B,_B]/ | %190
 z/4 [A,A]/4z/4[=C=c]/4 z/4 [_E_e]/4z/4[^F^f]/4 z/4 [Aa]/4z/4[=c=c']/4 z/4 [_ec'_e']/4z/4[cac']/4- [cac'][cc'] || %191
[K:C][M:6/8]!f![Q:1/4=46]"^Larghetto""^( = 92)" (_c'/4_b/4a/4_a/4g/4_g/4f/4e/4_e/4d/4^c/4=c/4) (=B/4_B/4=A/4_A/4A/4=A/4_B/4=B/4c/4^c/4d/4_e/4) | %192
 (_d'/4c'/4b/4_b/4a/4_a/4g/4_g/4f/4e/4_e/4d/4) (^c/4=c/4=B/4_B/4B/4=B/4c/4^c/4d/4^d/4=e/4=f/4) | %193
 (_e'/4d'/4^c'/4=c'/4b/4_b/4a/4_a/4=g/4_g/4f/4e/4) (^d/4=d/4^c/4=c/4c/4^c/4d/4^d/4e/4f/4^f/4=g/4) | %194
 !^![f^g]!mf! [dfb]/4[dfb]/4[dfb]/4[cec']/4- [cec']/4[cec']/4[dfd']/4[dfd']/4 !^![^d^f^d']!mf! [^Fc^d]/4[Fcd]/4[Fcd]/4[=Fc=d]/4- [Fcd]/4[Fcd]/4[Fcd]/4[Fcd]/4 | %195
 [FBd]2- [FBd]/[E^A^c]/- [EAc]/[FBd]/- [FBd][FBd] | %196
 ((([^Fc^d]/[Gce]/-))) [Gce]2 ((([Fcd]/[Gce]/-))) [Gce]2 |!p! (G/^A/^c/e/g) (G/B/d/f/g) | %198
!mf! ((([^Fc^d]/[Gce]/-))) [Gce]2 ((([Fcd]/[Gce]/-))) [Gce]2 |!p! .g.g/.g/.g .g.g/.g/.g | %200
!<(! .g.g/.g/.g!<)!!<(! .g.g/.g/.g!<)! |!mf! .g.g/(.g/.f) .g.g/(.g/.f) | (=BcF) FF/F/F || %203
[K:Bb][M:2/4][Q:1/4=92]!mf! B>G F/fd/ | cB/g/- (g/f/d/c/) | B>G F/fd/ | cB/F/- F/(F/G/A/) | %207
 (B>G) (F/f)d/ | c(B/g/-) g/(f/d/c/) | (B>G) (F/f)d/ | (d/c/=B/d/) (c/B/c/d/) | %211
[Q:1/4=85]"^Meno mosso"!f! ([ce]>[Ac]) [^FA]2 | ([ce]>[Ac]) ([^FA][e^f]) | ([d=f]>[=Bd]) [^GB]2 | %214
 ([df]>[=Bd]) ([^GB][df^g]) |!mp! [^Gdf^g]2-"_cresc." [Gdfg][Adfa] | [_Bdf_b]2- [Bdfb][=Bdf=b] | %217
 [=Bd^f=b]2- [Bdfb][cfac'] | [c^fac']2- [cfac'][^cfa^c'] | [d^fad'] z!mf! [dgd'][dgd']- | %220
 [dgd'][dg=bd'] [cgc'] z | A/B/c/A/ B/c/d/B/ | A/B/c/A/ B/c/d | [d^fad'] z!mf! [dgd'][dgd']- | %224
 [dgd'][dg=bd'] [cgc'] z | A/B/c/A/ B/c/d/B/ | A/B/c/A/ B/c/d |!f! ([ce]>[Ac]) [^FA]2 | %228
 (6:4:6(^F/G/^G/A/B/=B/ (6:4:6c/^c/d/e/=e/=f/) | (6:4:6(^g/=g/^f/=f/=e/_e/ (6:4:6d/_d/c/=B/_B/A/) | %230
"^R.H." ([df]>[=Bd]) ([^GB][df]) |!mp! [^Gdf^g]2-"_cresc." [Gdfg][Adfa] | %232
 [_Bdf_b]2- [Bdfb][=Bdf=b] | [=Bd^f=b]2- [Bdfb][cfac'] | [c^fac']2- [cfac'][^cfa^c'] | %235
!f! !///-![g_b^c']2 ^c2 | !///-![gb^c']2 ^c2 | !///-![gb^c']2 ^c2 | %238
 (!///-![fbd'] d [bd']/4f/4[bd']/4f/4[=bd'f']/4f/4[bd'f']/4f/4) | !///-![_b^c'=e']2 =e2 | %240
 !///-![b^c'=e']2 =e2 |!<(! !///-![b=c'=e']2 =e2!<)! | !>![ac'f']F/G/ A/B/c/A/ | %243
!f![Q:1/4=90]"^Più mosso" (B>G) (F/f)d/ | cB/g/- g/(f/d/c/) | (B>G) (F/f)d/ | cB/F/- F/(F/G/A/) | %247
 (B>G) (F/f)d/ | c(B/g/-) g/(f/d/c/) | (B>G) (F/f)d/ | c z [Aef] z |!ff! [Bdfb]B,/C/ D/GF/ | %252
 CA/G/ F/=E/F/G/ | A/B/c/d/ e/f/g/a/ | bB,/C/ D/GF/ | CA/G/ F/=E/F/G/ | A/B/c/d/ e/f/g/a/ | %257
 !///-![dfb]2 B2 | !///-![e_gb]2 B2 | !///-![dfb]2 B2 | !///-![e_gb]2 B2 | [dfb]2 z2 | %262
 [dfbd']2 z2 | [Bdfb]2 z2 | [dfbd']2 z2 |{/!fermata![B,DFB]} !fermata![B,DFB]4 |] %266
V:2
 [F,B,D][F,B,D] [F,B,D][F,B,D] | [F,B,D][F,B,D] [F,B,D][F,B,D] | [F,B,D][F,B,D] [F,B,D][F,B,D] | %3
 [F,B,D][F,B,D] [F,B,D][F,B,D] | [F,B,D][F,B,D] [F,B,D][F,B,D] | [F,B,D][F,B,D] [F,B,D]F, | %6
 (_A,/F,/D,/^C,/ D,/=B,,/_A,,/G,,/) | (^F,,/=B,,/D,) (B,,/D,/^F,) | %8
 (_A,/F,/D,/^C,/ D,/=B,,/_A,,/G,,/) | (^F,,/=B,,/D,) (^F,/D,/^C,) | ([_B,G][A,^F][_A,=F][G,=E]) | %11
 ([_G,_E][F,D][=E,^C][_E,=C]) | ([D,=B,][_D,_B,][C,A,][=B,,_A,]) | %13
 [C,G,]>[G,,G,] [F,,F,]/[E,,E,][G,,,G,,]/ | %14
 [_G,,,_G,,]/[F,,,F,,]/[G,,,G,,]/[F,,,F,,]/ [=E,,,=E,,]/[F,,,F,,]/[E,,,E,,]/[F,,,F,,]/ | %15
 _G,,/F,,/G,,/F,,/ =E,,/F,,/=G,,/A,,/ | (B,,>G,,) (F,,/F,)D,/ | C,(B,,/G,/-) (G,/F,/D,/C,/) | %18
 (B,,>G,,) (F,,/F,)D,/ | C,(B,,/F,,/-) F,,[G,,G,] | !>![^F,,^F,]2 !>![=F,,=F,]2 | !>![E,,E,]4 | %22
 !>![G,,G,]2 !>![_G,,_G,]2 | !>![_F,,_F,]4 | (=E/_E/D/^C/-) C2 | (_E/D/^C/=C/-) C2 | %26
 (D/^C/=C/=B,/-) B,2 | (^F,/G,/^G,/A,/) [_A,,_A,][=G,,=G,] | !>![^F,,^F,]2 !>![=F,,=F,]2 | %29
 !>![E,,E,]4 | !>![G,,G,]2 !>![_G,,_G,]2 | !>![_F,,_F,]4 | (=E/_E/D/^C/-) C2 | (_E/D/^C/=C/-) C2 | %34
 (D/^C/=C/=B,/-) B,2 | (^G,/D/=B,/G,/) F, z | (=E,>F,) (E,/F,/D,) | (C,=B,,A,,C,) | %38
 (=E,>F,) (E,/F,/D,) | !>!C,!>!=B,,!>!A,,!>!G,, | %40
 (6:4:6(!>!^F,,/G,,/^G,,/A,,/B,,/=B,,/ (6:4:6C,/^C,/D,/E,/=E,/=F,/) | %41
 (6:4:6(^F,/=F,/=E,/_E,/D,/_D,/ (6:4:6C,/_C,/B,,/A,,/_A,,/G,,/) | %42
 (6:4:6(^G,,/A,,/B,,/=B,,/C,/^C,/ (6:4:6D,/E,/=E,/F,/^F,/=G,/) | %43
 (6:4:6(^G,/=G,/^F,/=F,/=E,/_E,/ (6:4:6D,/_D,/C,/=B,,/_B,,/A,,/) | %44
 (6:4:6(B,,/=B,,/C,/^C,/D,/E,/ (6:4:6=E,/F,/^F,/G,/^G,/A,/) | %45
"^molto rit." (6:4:6(B,/A,/_A,/G,/_G,/F,/ (6:4:6=E,/_E,/D,/^C,/=C,/!fermata!=B,,/) || %46
[K:Bb][M:4/4] (_B,,^C,=E,G,) (^C,=E,G,B,) | (=E,G,B,^C) =E z z2 | [G,B,]8- | [G,B,]8 || %50
[K:Bb][M:2/4] [C,F,_A,][C,F,A,] [C,F,A,][C,F,A,] | [C,F,_A,][C,F,A,] [C,F,A,][C,F,A,] | %52
 [C,F,_A,][C,F,A,] [C,F,A,][C,F,A,] | [C,F,_A,][C,F,A,] [C,F,A,][C,_E,G,] | %54
 (6:4:6(^F,,/G,,/^G,,/A,,/B,,/=B,,/ (6:4:6C,/^C,/D,/E,/=E,/=F,/) | %55
 (6:4:6(^F,/=F,/=E,/_E,/D,/_D,/ (6:4:6C,/_C,/B,,/A,,/_A,,/G,,/) | %56
 (6:4:6(^G,,/A,,/B,,/=B,,/C,/^C,/ (6:4:6D,/E,/=E,/F,/^F,/=G,/) | %57
 (6:4:6(^G,/=G,/^F,/=F,/=E,/_E,/ (6:4:6D,/_D,/C,/=B,,/_B,,/A,,/) | %58
 (6:4:6(B,,/=B,,/C,/^C,/D,/E,/ (6:4:6=E,/F,/^F,/G,/^G,/A,/) | %59
 (6:4:6(B,/A,/_A,/G,/_G,/F,/ (6:4:6=E,/_E,/D,/^C,/=C,/=B,,/) | %60
 (6:4:6(_B,,/A,,/_A,,/G,,/_G,,/F,,/ (6:4:6=E,,/F,,/^F,,/=G,,/^G,,/=A,,/) | %61
 B,,/_D,/=E,/B,,/ A,,/C,/E,/A,,/ | B,,/_D,/=E,/B,,/ A,,/C,/E,/A,,/ | %63
 B,,/_D,/=E,/B,,/ A,,/C,/E,/F,/ | !>![D,,D,] !>![D,,D,]2 !>![D,,D,] | %65
 !>![=E,,=E,]"^K. Dr." E,,/E,/ E,,E,,/E,/ | =E,, z [E,,=E,] z | %67
 z2"^Tromb."{/!fermata!^D,} !fermata!=E,2 ||[K:C][M:4/4] z2 (G,>^F, (G,3) _A,) | %69
 _A,2 (G,/D,/^D,/E,/ ^F,/G,/^G,/=A,/ =G,2-) | G, z (G,>^F, G,2) E,2 | %71
 F,2 [G,DF]2- [G,DF]2 [F,G,B,]2 | [E,G,] z (G,>^F, G,2-) G, z | (!^![^F,,^F,]4 F,2) (^E,^^D, | %74
 ^E,2) ^F,2- (F,^^F,^G,^A,) | (B,^D,=F,^G,) [=G,,=G,]4 | G, z (G,>^F, (G,3) _A,) | %77
 _A,2 (G,/D,/^D,/E,/ ^F,/G,/^G,/=A,/) =G,2- | G, z (G,>^F,) (^G,3 B,) | (CA,B,C) D z z2 | %80
 !>![B,,^G,] z z2 z B,,B,B, | [_B,F]2 (B,/D/C/B,/ G,/^F,/=F,/E,/) _E,_B,, | %82
 _E,2 E,>^F,"^Sempre" _E3 E | _E,2 D,>F, D3 D | D,2 _D,>=E, _D3 D | %85
 _D,2 C,/=D,/_E,/D,/ C,/D,/E,/D,/ C,/D,/E,/D,/ | %86
 (C,/_E,/_G,/A,/ C/A,/G,/E,/) (C,/E,/G,/A,/ C/A,/G,/E,/) | %87
 (D,/F,/^G,/B,/ D/^C/D/B,/) [D,F,=G,B,]2 ([B,,F,G,]!fermata![D,G,B,]) | %88
 (CG, CG,) (3(^F,/A,/C/_E/C/) (([=F,C][G,B,])) | (CG, CG,) (3(^F,/A,/C/_E-) (E/C/A,/F,/) | %90
 (3(G,/C/D/_E-) (E/G/E/C/) (3(G,/_A,/G,/F,-) (F,/A,/G,/F,/) | %91
 _E,E,/F,/ G,/^F,/G,/=F,/ E,E,/F,/ G,/^F,/G,/^G,/ | (A,/C/_E) E2- EE E/D/C | A,/C/_E E2- EE E/D/C | %94
 (C/D/C/B,/ C)[B,D]- [B,D] C2 B, | [E,B,] z"^rit." E,/F,/E,/^D,/ E,2 (=D,!fermata!^D,) | %96
 (CG, CG,) (3(^F,/A,/C/_E/C/) (([=F,C][G,B,])) | (CG, CG,) (3(^F,/A,/C/_E-) (E/C/A,/F,/) | %98
 (3(G,/C/D/_E-) (E/G/E/C/) (3(G,/_A,/G,/F,-) (F,/A,/G,/F,/) | %99
 _E,E,/F,/ G,/^F,/G,/=F,/ E,E,/F,/ G,/^F,/G,/^G,/ | A,/C/_E E2- EE E/D/C | A,/C/_E E2- EE E/D/C | %102
 (C/D/C/B,/) C[B,D] C C2 A, | [^F,A,C^D]6 [F,A,CD]2 | [^F,A,C^D]6 [F,A,CD]2 | %105
 [=F,_A,C=D]6 [F,A,CD]2 | [G,CE]6 [E,G,C]2 |"^ad lib." [D,F,G,B,]2 x2 x8 x8 x | %108
 z2 (G,>^F, (G,3) _A,) | _A,2 (G,/D,/^D,/E,/ ^F,/G,/^G,/=A,/) =G,2- | G, z (G,>^F, G,2) E,2 | %111
 F,2 [G,DF]2- [G,DF]2 [F,G,B,]2 | [E,G,] z G,>^F, G,2- G, z | !^![^F,,^F,-]4 F,2 (^E,^^D, | %114
 ^E,2) ^F,2- (F,^^F,^G,^A,) | (B,^D,=F,^G,) [=G,,=G,]4 | x z (G,>^F, (G,3) _A,) | %117
 _A,2 (G,/D,/^D,/E,/ ^F,/G,/^G,/=A,/) =G,2- | G, z (G,>^F, (^G,3) B,) | (CA,B,C D) z z2 | %120
 !>![B,,^G,] z ([B,,G,]>[^G,,F,] E,2) (CA,) | ^F, z (^D/C/A,/F,/) (G,/C/=D/E/) (E^D | %122
 E2) ^C>D [G,,G,]2- !fermata![G,,G,][=C,G,] ||[M:2/4] [A,,A,]A, A,A, | A,A,/A,/ A,A, | %125
 [A,,A,]A, A,A, | A, z [A,,E,G,]2 ||[K:D][M:2/4] [A,,D,F,][A,,D,F,] [A,,D,F,][A,,D,F,] | %128
 [A,,D,F,][A,,D,F,] [A,,D,F,][A,,D,F,] | [A,,D,F,][A,,D,F,] [A,,D,F,][A,,D,F,] | %130
 [A,,D,F,][A,,D,F,]/[A,,D,F,]/- (3[A,,D,F,]/A,,/B,,/=C, | (=C,/D,/E,/=F,/) (C,/D,/E,/F,/) | %132
 G,=F,/=C,/- (3C,/C,/D,/_E, | (_E,/=F,/G,/_A,/) (E,/F,/G,/A,/) | _B,_A,/_E,/- (3E,/E,/=F,/^F, | %135
 (F,/^G,/^A,/B,/) (F,/G,/A,/B,/) | ^CB,/F,/- F,/F,/G, | [G,,G,]2- [G,,G,]/^G,/A, | %138
 [A,,A,]2- [A,,A,]/^A,/B, | %139
"^R.H.""_L.H." (6:4:6(^G,/A,/^A,/B,/^B,/^C/)[I:staff -1] D[I:staff +1]!fermata!^G,/!fermata!=B,/ | %140
 (6:4:6(A,/^A,/B,/^B,/^C/D/)[I:staff -1] _E[I:staff +1]!fermata!=A,/!fermata!=C/ | %141
 (6:4:6(_B,/=B,/=C/^C/[I:staff -1]D/^D/) =E!fermata!_B,/!fermata!^C/ | %142
[I:staff +1] (6:4:6(D,/^D,/E,/=F,/^F,/G,/) _A,!fermata!=B,,/!fermata!=D,/ || %143
[M:4/4] z"^Sempre" [D,D]z[B,,B,] z2 [=C,=C]2 | z [=C,=C]z[A,,A,] z2 [_B,,_B,]2 | %145
 [_B,,_B,][_A,,_A,][=F,,=F,][G,,G,] [A,,A,]2 [G,,G,][_B,,_B,] | %146
 [_B,,_B,][_A,,_A,][=F,,=F,][G,,G,] [A,,A,]2 [G,,G,][_B,,_B,] | %147
 [_B,,_B,]3 [G,,G,] [D,,D,] [E,,E,]2 [G,,G,] | [^F,,^F,]2 [G,,G,][A,,A,]- [A,,A,][D,D] [=C,=C]2 | %149
 [_B,,_B,]3 [G,,G,] [D,,D,] [E,,E,]2 [G,,G,] | [A,,A,]A,^A,^C z4 | z [D,D]z[B,,B,] z2 [=C,=C]2 | %152
 z [=C,=C]z[A,,A,] z2 [_B,,_B,]2 | [_B,,_B,][_A,,_A,][=F,,=F,][G,,G,] [A,,A,]2 [G,,G,][_B,,_B,] | %154
 [_B,,_B,][_A,,_A,][=F,,=F,][G,,G,] [A,,A,]2 [G,,G,][_B,,_B,] | %155
 [_B,,_B,]3 [G,,G,] [D,,D,] [E,,E,]2 [G,,G,] | [^F,,^F,]2 [G,,G,][A,,A,]- [A,,A,][D,D] [=C,=C]2 | %157
 [_B,,_B,]3 [G,,G,] [D,,D,] [E,,E,]2 [G,,G,] | %158
 [E,,E,][E,,E,][=F,,=F,][_B,,_B,] [=C,=C][B,,B,][A,,A,][G,,G,] | %159
 [A,,A,]2 [_B,,_B,][G,,G,] [=F,,=F,] [_E,,_E,]2 [D,,D,] | %160
 [=C,,=C,]2 [_B,,,_B,,][=F,,,=F,,]- [F,,,F,,]2 [F,,,F,,]2 | %161
 [^F,,,^F,,]2 [F,,,F,,][G,,,G,,] [A,,,A,,][_B,,,_B,,][D,,D,][_E,,_E,] | %162
 [=E,,=E,][E,,E,] [E,,E,]2 [E,,E,][E,,E,] [E,,E,]2 | %163
 [=F,,=F,]2 [_B,,_B,]2 [B,,B,][A,,A,] [^G,,^G,]2 | [A,,A,]2 [D,D]2 [D,D][=F,=F] [E,E]2 | %165
 [D,D]2 [^G,,^G,][A,,A,]- [A,,A,][A,,A,] [=C,=C]2 | %166
 [_B,,_B,]2 [A,,A,][G,,G,]- [G,,G,][G,,G,] [A,,A,]2 | [G,,G,]3 [G,,G,] [G,,G,]3 [G,,G,] | %168
 [^G,,^G,]3 [G,,G,] [=G,,=G,]3 [G,,G,] | [F,,F,] z z2"^K. Dr." F,,F,F,,F, | z4 [F,^A,E]4 || %171
[K:D][M:4/4] B,,2 [F,B,D]2 B,,2 [F,B,D]2 | z [G,B,][G,B,][B,C]- [B,C][B,C] [G,B,]2 | %173
 z [F,^A,][F,A,][A,C]- [A,C][A,C] [F,A,]2 | z [F,B,][F,B,][G,B,]- [G,B,][F,B,] ^A,2 | %175
 B,,2 [F,B,D]2 B,,2 [F,B,D]2 | z [CE][CE][EG]- [EG][EG] [CE]2 | [E,G,B,C]6 [E,,E,]2 | %178
 [F,,F,]2 z2 z4 | B,,2 [F,B,D]2 B,,2 [F,B,D]2 | z [G,B,][G,B,][B,C]- [B,C][B,C] [G,B,]2 | %181
 z [F,^A,][F,A,][A,C]- [A,C][A,C] [F,A,]2 | z [F,B,][F,B,]B,- B,B, B,2 | z _B,B,B,- x4 | %184
 [^G,,^G,]4- [G,,G,][G,,G,] [=G,,=G,]2 | %185
"^rit.          poco      a      poco" [G,,G,]2 [^F,,^F,][F,,F,]- [F,,F,](F,A,=C) | %186
 ^C2 z2 !fermata!z4 || %187
[K:D][M:6/8] [E,G,^A,](E,/4F,/4G,/4=A,/4)^A, [C,,C,]/[D,,D,]/[C,,C,]/[B,,,B,,]/[^A,,,^A,,]/[=A,,,=A,,]/ | %188
 [^G,,,^G,,]/[B,,,B,,]/[D,,D,]/[=F,,=F,]/[^G,,^G,]/[B,,B,]/ [A,,A,]/[A,,A,]/ [^F,A,][^D,F,] | %189
 [=F,^G,B,](F,/4=G,/4^G,/4^A,/4)B, [D,,D,]/[_E,,_E,]/[D,,D,]/[=C,,=C,]/[B,,,B,,]/[_B,,,_B,,]/ | %190
 [A,,,A,,]/[=C,,=C,]/[_E,,_E,]/[^F,,^F,]/[A,,A,]/[=C,=C]/ [_E,_E]/[C,C]/ [_E,F,][A,,F,] || %191
[K:C][M:6/8] ([_A,,=F,]/[=A,,^F,]/[_B,,G,]/[=B,,^G,]/[C,=A,]/[^C,^A,]/) ([D,=B,]/[_E,=C]/[D,B,]/[_D,_B,]/[=C,=A,]/[_C,_A,]/) | %192
 ([_B,,G,]/[=B,,^G,]/[C,A,]/[^C,^A,]/[D,=B,]/[_E,=C]/) ([=E,^C]/[F,D]/[=E,^C]/[_E,=C]/[D,B,]/[_D,_B,]/) | %193
 ([C,A,]/[^C,^A,]/[D,B,]/[_E,=C]/[=E,^C]/[F,D]/) ([^F,^D]/[G,E]/[^F,^D]/[=F,=D]/[E,^C]/[_E,=C]/) | %194
 !^![D,B,] ^G,/4G,/4G,/4A,/4- A,/4A,/4A,/4A,/4 !^![^F,A,C^D] [A,,A,]/4[A,,A,]/4[A,,A,]/4[_A,,_A,]/4- [A,,A,]/4[A,,A,]/4[A,,A,]/4[A,,A,]/4 | %195
 G,B,,/D,/G, G,B,,/D,/G, | C,(C/B,/A,/G,/) C,(C/B,/A,/G,/) | ((([^A,^CE]3 [B,DF]3))) | %198
 C,(C/B,/A,/G,/) C,(C/B,/A,/G,/) | (E3 _E3) | ((D3 [^C=E]3)) | [=C_E]6 | %202
 (([^G,D] [A,_E]2-)) [A,E]3 ||[K:Bb][M:2/4] [F,B,D][F,B,D] [F,B,D][F,B,D] | %204
 [F,B,D][F,B,D] [F,B,D][F,B,D] | [F,B,D][F,B,D] [F,B,D][F,B,D] | [F,B,D][F,B,D] [F,CE][F,CE] | %207
 [F,B,D][F,B,D] [F,B,D][F,B,D] | [F,B,D][F,B,D] [F,B,D][F,B,D] | [F,B,D][F,B,D] [F,B,D][F,B,D] | %210
 ((([F,_A,=B,]2 [E,G,C]2))) | (6:4:6(^F,/G,/^G,/A,/B,/=B,/ (6:4:6C/_C/_B,/A,/_A,/=G,/) | %212
 (6:4:6(^F,/G,/^G,/A,/B,/=B,/ (6:4:6C/_C/_B,/A,/_A,/=G,/) | %213
 (6:4:6(^G,/A,/B,/=B,/C/^C/ (6:4:6D/_D/=C/=B,/_B,/A,/) | %214
 (6:4:6(^G,/A,/B,/=B,/C/^C/ (6:4:6D/_D/=C/B,/^A,/B,/) | [=B,,=B,]2- [B,,B,][A,,A,] | %216
 [_A,,_A,]2- [A,,A,][G,,G,] | [^F,,^F,]2- [F,,F,][_E,_E] | [D,D]2- [D,D][^C,^C] | %219
 [=C,=C] z [_B,,_B,][B,,B,]- | [B,,B,][=F,=F] [E,E] z | C/D/E/C/ D/E/F/D/ | C/D/E/C/ D/E/F | %223
 [C,C] z [B,,B,][B,,B,]- | [B,,B,][=F,=F] [E,E] z | C/D/E/C/ D/C/B,/D,/ | C,/D,/E,/C,/ D,/E,/F, | %227
 (6:4:6(^F,/G,/^G,/A,/B,/=B,/[I:staff -1] (6:4:6C/^C/D/E/=E/=F/) |[I:staff +1] _E3 ^F | =F4 | %230
"^L.H."[I:staff -1] (6:4:6(^G/=G/^F/=F/=E/_E/[I:staff +1] (6:4:6D/_D/C/=B,/^A,/B,/) | %231
 [=B,,=B,]2- [B,,B,][A,,A,] | [_A,,_A,]2- [A,,A,][G,,G,] | [^F,,^F,]2- [F,,F,][_E,_E] | %234
 [D,D]2- [D,D][^C,^C] | !>!=E,>!>!_B, !>!A,/!>!G,!>!F,/ | !>!=E,!>!F,/G,/- G,/!>!A,/!>!G,/!>!F,/ | %237
 !>!=E,>!>!B, !>!A,/!>!G,!>!E,/ | !>!F,/!>!G,/!>!F,/!>!=E,/ !>!F,/!>!G,/!>!_A, | %239
 !>!G,>!>!^C !>!=C/!>!B,!>!A,/ | !>!G,!>!A,/B,/- B,/(!>!G,/!>!=E,/!>!F,/) | %241
 !>!G,>!>![G,,G,] !>![_G,,_G,]!>![G,,G,] | !>![F,,F,] z [F,C_E]2 | [F,B,D][F,B,D] [F,B,D][F,B,D] | %244
 [F,B,D][F,B,D] [F,B,D][F,B,D] | [F,B,D][F,B,D] [F,B,D][F,B,D] | [F,B,D][F,B,D] [F,CE][F,CE] | %247
 [F,B,D][F,B,D] [F,B,D][F,B,D] | [F,B,D][F,B,D] [F,B,D][F,B,D] | [F,B,D][F,B,D] [F,B,D][F,B,D] | %250
 [F,A,E] z [F,F] z | [B,,B,]"^sempre"B,,/C,/ D,/G,F,/ | C,A,/G,/ F,/=E,/F,/G,/ | %253
 A,/B,/C/D/[I:staff -1] E/F/G/A/ | B[I:staff +1]B,,/C,/ D,/G,F,/ | C,A,/G,/ F,/=E,/F,/G,/ | %256
 A,/B,/C/D/[I:staff -1] E/F/G/A/ |[I:staff +1] [B,,B,]>G, F,/[F,F][_A,_A]/ | %258
 [_G,_G]>[E,E] [C,C]/[E,,E,][_G,,_G,]/ | [B,,B,]2 [F,F][_A,_A] | %260
 [_G,_G]>[E,E] [C,C]/[E,,E,][_G,,_G,]/ |"^accel." [B,,B,]2 z2 | [B,DF]2 z2 | [B,DF]2 z2 | %264
 [B,DF]2 z2 |{/!fermata![B,,,B,,]} !fermata![B,,,B,,]4 |] %266
V:3
 x4 | x4 | x4 | x4 | x4 | x4 | x4 | x4 | x4 | x4 | x4 | x4 | x4 | x4 | x4 | x4 | x4 | x4 | x4 | %19
 x4 | [^F=B]2 [GB]2 | [Gce]4 | [Gc]2 [_Ac]2 | [_A_d_f]4 | [GB]4 | [^FA]4 | [=F^G]4 | x4 | %28
 [^F=B]2 [GB]2 | [Gce]4 | [Gc]2 [_Ac]2 | [_A_d_f]4 | [GB]4 | [^FA]4 | [=F^G]4 | x4 | %36
 (=B,>D) (C/D/B,) | (A,2 C2) | (=B,>D) (C/D/B,) | x4 | x4 | x4 | x4 | x4 | x4 | x4 || %46
[K:Bb][M:4/4] x8 | x8 | x8 | x8 ||[K:Bb][M:2/4] x4 | x4 | x4 | x x Cc | x4 | x4 | x4 | x4 | x4 | %59
 x4 | x2[K:bass] x2 |[K:treble] x4 | x4 | x4 | x4 | x4 | x4 | x4 ||[K:C][M:4/4] x2 C2- C4 | %69
 C4 ([C^D]2 C2-) | C x (C4 [G,^A,]2) | G6 (D^D) | x x C2- C2- C z | x2 x2 =B,2 x x | %74
 x2 [B,^D]2 ^A3 [E^F] | (([^D^F]2 [=D=F]2)) B,4 | x x C2- C4 | C4 ([C^D]2 C2-) | C x C2 x3 x | %79
 (ECDE) F z z2 | x x ^G2- G3 G | x2 [FG]2 x2 x2 | x8 | x8 | x8 | x8 | x8 | x8 | x8 | x8 | x8 | x8 | %92
 x4 x2 A2 | x4 x2 A2 | x8 | x8 | x8 | x8 | x8 | x8 | x2 x2 x2 A2 | x2 x2 x2 A2 | x8 | x8 | x8 | %105
 x8 | x8 | x21 | x2 C2- C4 | C4 ([C^D]2 C2-) | C x C4 [G,^A,]2 | G6 (D^D) | x x C2- C2- C z | %113
 x4 =B,2 x2 | x2 [B,^D]2 ^A3 [E^F] | (([^D^F]2 [=D=F]2)) F2 x2 | x x C2- C4 | C4 ([C^D]2 C2-) | %118
 x x C2 x4 | (ECDE F) z z2 | x x x2 (CEAc) | x x [c^d]2 [ce]2 x2 | x8 ||[M:2/4] x4 | x4 | x4 | %126
 x2 [^CG]2 ||[K:D][M:2/4] x4 | x4 | x4 | x4 | x4 | x4 | x4 | x4 | x4 | x4 | x4 | x4 | x4 | x4 | %141
 x4 | (6:4:6(=B,/^B,/C/D/^D/E/) =F!fermata!=B,/!fermata!=D/ ||[M:4/4] x8 | x8 | x8 | x8 | x8 | %148
 x2 x2 x2 [df]2 | x8 | x8 | x8 | x8 | x8 | x8 | x8 | x2 x2 x2 [df]2 | x8 | x8 | x8 | x8 | x8 | x8 | %163
 x8 | x8 | x8 | x8 | x8 | x8 | x8 | x8 ||[K:D][M:4/4] x8 | z [CE][CE][EG]- [EG][EG] [CE]2 | %173
 z [CE][CE][EF]- [EF][EF] [CE]2 | z DDE- ED [CE]2 | x8 | z [GB][GB][Bc]- [Bc][Bc] [GB]2 | x8 | x8 | %179
 x8 | z [CE][CE][EG]- [EG][EG] [CE]2 | z [CE][CE][EF]- [EF][EF] [CE]2 | z DD[DF]- [DF][EG] [DF]2 | %183
 z [DG][DG][DG]- x4 | z [=Bd][Bd][Bd]- x4 | x8 | x8 ||[K:D][M:6/8] x6 | x6 | x6 | x6 || %191
[K:C][M:6/8] (_c/=c/_d/=d/_e/=e/) (f/_g/_a/=g/^f/=f/) | (_d/=d/_e/=e/f/^f/) (=g/_a/_b/=a/_a/g/) | %193
 (_e/=e/f/_g/=g/_a/) (=a/_b/c'/=b/_b/a/) | x6 | x6 | x6 | x6 | x6 | [G_B]6 | [G_B]6 | %201
 ([G_B]2 A B2 A) | x6 ||[K:Bb][M:2/4] x4 | x4 | x4 | x4 | x4 | x4 | x4 | x4 | E4 | E4 | =F4 | F4 | %215
 x4 | x4 | x4 | x4 | x4 | x4 | x4 | x4 | x4 | x4 | x4 | x4 | E3 z | x4 | x4 | f3 ^g | x4 | x4 | %233
 x4 | x4 | x4 | x4 | x4 | x4 | x4 | x4 | x4 | x4 | x4 | x4 | x4 | x4 | x4 | x4 | x4 | x4 | x4 | %252
 x4 | x4 | x4 | x4 | x4 | x4 | x4 | x4 | x4 | x4 | x4 | x4 | x4 | x4 |] %266
V:4
 x4 | x4 | x4 | x4 | x4 | x4 | x4 | x4 | x4 | x4 | x4 | x4 | x4 | x4 | x4 | x4 | x4 | x4 | x4 | %19
 x4 | x4 | z (G,CE) | x4 | z (_A,_D_F) | B,2- B,/(^C,/=E,/=G,/) | A,2- A,/(=C,/_E,/^F,/) | %26
 ^G,2- G,/(=B,,/D,/=F,/) | x4 | x4 | z (G,CE) | x4 | z (_A,_D_F) | B,2- B,/(^C,/=E,/=G,/) | %33
 A,2- A,/(=C,/_E,/^F,/) | ^G,2- G,/(=B,,/D,/=F,/) | x4 | x4 | x4 | x4 | x4 | x4 | x4 | x4 | x4 | %44
 x4 | x4 ||[K:Bb][M:4/4] x8 | x8 | ([_D,F,]4 [C,=E,]4 | ([_D,F,]4) [C,=E,]4) ||[K:Bb][M:2/4] x4 | %51
 x4 | x4 | x4 | x4 | x4 | x4 | x4 | x4 | x4 | x4 | x4 | x4 | x4 | x4 | x4 | x4 | x4 || %68
[K:C][M:4/4] z4 z G,,C, z | z4 z2 z G,, | C, z z2 z C, ^C,2 | D,2 z2 z2 z G,, |C, z z2 z G,,C, x | %73
 x4 (B,,/^C,/^^C,/^D,/) x2 | z4 ^F,,4 | B,,3 ^G,, x4 | C, z z2 z G,,C, z | z4 z2 z G,, | %78
C, z z2 (E,B,,E,=D,) | C,2 z2 z4 | x2 (D>E F3) F | x8 | x8 | x8 | x8 | x8 | x8 | x8 | %88
 [C,E,]4 z2 D,2 | [C,E,]4 z4 | x8 | x8 | x8 | x8 | x8 | x x x2 x2 !fermata!G,,2 | [C,E,]4 z2 D,2 | %97
 [C,E,]4 z4 | x8 | x8 | x8 | x8 | x8 | x8 | x8 | x8 | x8 | x21 | z4 z G,,C, z | z4 z2 z G,, | %110
C, z z2 z C, ^C,2 | D,2 z2 z2 z G,, |C, z z2 z G,,C, x | x4 (B,,/^C,/^^C,/^D,/) x2 | z4 ^F,,4 | %115
 B,,3 ^G,, x4 | [C,G,] z z2 z G,,C, z | z4 z2 z G,, |C, z z2 (E,B,,E,=D,) | C,2 z2 z4 | %120
 x x x2 A,,4 | ^F, x F,>F, G,2 x2 | x8 ||[M:2/4] x4 | x4 | x4 | x4 ||[K:D][M:2/4] x4 | x4 | x4 | %130
 x4 | x4 | x4 | x4 | x4 | x4 | x4 | x4 | x4 | %139
 (6:4:6(B,,/=C,/^C,/D,/^D,/E,/) =F,!fermata!^G,,/!fermata!=B,,/ | %140
 (6:4:6(=C,/^C,/D,/^D,/E,/=F,/) _G,!fermata!=A,,/!fermata!=C,/ | %141
 (6:4:6(_D,/=D,/_E,/=E,/=F,/^F,/) =G,!fermata!_B,,/!fermata!^C,/ | x4 ||[M:4/4] x8 | x8 | x8 | x8 | %147
 x8 | x8 | x8 | x8 | x8 | x8 | x8 | x8 | x8 | x8 | x8 | x8 | x8 | x8 | x8 | x8 | x8 | x8 | x8 | %166
 x8 | x8 | x8 | x8 | x8 ||[K:D][M:4/4] x8 | E,,8 | F,,8 | B,,6 F,2 | x8 | E,,8 | x8 | x8 | x8 | %180
 E,,8 | F,,8 | B,,8 | _B,,4- [B,,B,][B,,_B,] [A,,A,]2 | x8 | x8 | x8 ||[K:D][M:6/8] C,2- C, x x2 | %188
 x6 | =D,2- D, x x2 | x6 ||[K:C][M:6/8] x6 | x6 | x6 | x6 | G,,3- G,,2 G,, | C,6 | G,6 | C,6 | x6 | %200
 x6 | x6 | F,6 ||[K:Bb][M:2/4] x4 | x4 | x4 | x4 | x4 | x4 | x4 | x4 | x4 | x4 | x4 | x4 | x4 | %216
 x4 | x4 | x4 | x4 | x4 | x4 | x4 | x4 | x4 | x4 | x4 | x4 | ([CE]>[A,C]) [^F,A,][CE] | %229
 ([DF]>[=B,D]) [^G,B,]2 | x4 | x4 | x4 | x4 | x4 | x4 | x4 | x4 | x4 | x4 | x4 | x4 | x4 | x4 | %244
 x4 | x4 | x4 | x4 | x4 | x4 | x4 | x4 | x4 | x4 | x4 | x4 | x4 | x4 | x4 | x4 | x4 | x4 | x4 | %263
 x4 | x4 | x4 |] %266
V:5
 x4 | x4 | x4 | x4 | x4 | x4 | x4 | x4 | x4 | x4 | x4 | x4 | x4 | x4 | x4 | x4 | x4 | x4 | x4 | %19
 x4 | x4 | x4 | x4 | x4 | x4 | x4 | x4 | x4 | x4 | x4 | x4 | x4 | x4 | x4 | x4 | x4 | x4 | x4 | %38
 x4 | x4 | x4 | x4 | x4 | x4 | x4 | x4 ||[K:Bb][M:4/4] x8 | x8 | x8 | x8 ||[K:Bb][M:2/4] x4 | x4 | %52
 x4 | x4 | x4 | x4 | x4 | x4 | x4 | x4 | x2[K:bass] x2 |[K:treble] x4 | x4 | x4 | x4 | x4 | x4 | %67
 x4 ||[K:C][M:4/4] x8 | x8 | x8 | [G,B,]2 x2 x4 | x8 | x8 | x8 | x2 x2 F2 x2 | x8 | x8 | x8 | x8 | %80
 x8 | x8 | x8 | x8 | x8 | x8 | x8 | x8 | x8 | x8 | x8 | x8 | x8 | x8 | x8 | x8 | x8 | x8 | x8 | %99
 x8 | x8 | x8 | x8 | x8 | x8 | x8 | x8 | x21 | x8 | x8 | x8 | [G,B,]2 x2 x4 | x8 | x8 | x8 | x8 | %116
 x8 | x8 | x8 | x8 | x8 | x8 | x8 ||[M:2/4] x4 | x4 | x4 | x4 ||[K:D][M:2/4] x4 | x4 | x4 | x4 | %131
 x4 | x4 | x4 | x4 | x4 | x4 | x4 | x4 | x4 | x4 | x4 | x4 ||[M:4/4] x8 | x8 | x8 | x8 | x8 | x8 | %149
 x8 | x8 | x8 | x8 | x8 | x8 | x8 | x8 | x8 | x8 | x8 | x8 | x8 | x8 | x8 | x8 | x8 | x8 | x8 | %168
 x8 | x8 | x8 ||[K:D][M:4/4] x8 | x8 | x8 | x8 | x8 | x8 | x8 | x8 | x8 | x8 | x8 | x8 | x8 | x8 | %185
 x8 | x8 ||[K:D][M:6/8] x6 | x6 | x6 | x6 ||[K:C][M:6/8] x6 | x6 | x6 | x6 | x6 | x6 | x6 | x6 | %199
 x6 | x6 | x6 | x6 ||[K:Bb][M:2/4] x4 | x4 | x4 | x4 | x4 | x4 | x4 | x4 | x4 | x4 | x4 | x4 | x4 | %216
 x4 | x4 | x4 | x4 | x4 | x4 | x4 | x4 | x4 | x4 | x4 | x4 | x4 | x4 | x4 | x4 | x4 | x4 | x4 | %235
 x4 | x4 | x4 | x4 | x4 | x4 | x4 | x4 | x4 | x4 | x4 | x4 | x4 | x4 | x4 | x4 | x4 | x4 | x4 | %254
 x4 | x4 | x4 | x4 | x4 | x4 | x4 | x4 | x4 | x4 | x4 | x4 |] %266
V:6
 x4 | x4 | x4 | x4 | x4 | x4 | x4 | x4 | x4 | x4 | x4 | x4 | x4 | x4 | x4 | x4 | x4 | x4 | x4 | %19
 x4 | x4 | x4 | x4 | x4 | x4 | x4 | x4 | x4 | x4 | x4 | x4 | x4 | x4 | x4 | x4 | x4 | x4 | x4 | %38
 x4 | x4 | x4 | x4 | x4 | x4 | x4 | x4 ||[K:Bb][M:4/4] x8 | x8 | x8 | x8 ||[K:Bb][M:2/4] x4 | x4 | %52
 x4 | x4 | x4 | x4 | x4 | x4 | x4 | x4 | x2[K:bass] x2 |[K:treble] x4 | x4 | x4 | x4 | x4 | x4 | %67
 x4 ||[K:C][M:4/4] x8 | x8 | x8 | x8 | x8 | x8 | x8 | x8 | x8 | x8 | x8 | x8 | x8 | x8 | x8 | x8 | %84
 x8 | x8 | x8 | x8 | x8 | x8 | x8 | x8 | x8 | x8 | x8 | x8 | x8 | x8 | x8 | x8 | x8 | x8 | x8 | %103
 x8 | x8 | x8 | x8 | x21 | x8 | x8 | x8 | x8 | x8 | x8 | x8 | x4 B,4 | x8 | x8 | x8 | x8 | x8 | %121
 x8 | x8 ||[M:2/4] x4 | x4 | x4 | x4 ||[K:D][M:2/4] x4 | x4 | x4 | x4 | x4 | x4 | x4 | x4 | x4 | %136
 x4 | x4 | x4 | x4 | x4 | x4 | x4 ||[M:4/4] x8 | x8 | x8 | x8 | x8 | x8 | x8 | x8 | x8 | x8 | x8 | %154
 x8 | x8 | x8 | x8 | x8 | x8 | x8 | x8 | x8 | x8 | x8 | x8 | x8 | x8 | x8 | x8 | x8 || %171
[K:D][M:4/4] x8 | x8 | x8 | x8 | x8 | x8 | x8 | x8 | x8 | x8 | x8 | x8 | x8 | x8 | x8 | x8 || %187
[K:D][M:6/8] x6 | x6 | x6 | x6 ||[K:C][M:6/8] x6 | x6 | x6 | x6 | x6 | x6 | x6 | x6 | x6 | x6 | %201
 x6 | x6 ||[K:Bb][M:2/4] x4 | x4 | x4 | x4 | x4 | x4 | x4 | x4 | x4 | x4 | x4 | x4 | x4 | x4 | x4 | %218
 x4 | x4 | x4 | x4 | x4 | x4 | x4 | x4 | x4 | x4 | x4 | x4 | x4 | x4 | x4 | x4 | x4 | x4 | x4 | %237
 x4 | x4 | x4 | x4 | x4 | x4 | x4 | x4 | x4 | x4 | x4 | x4 | x4 | x4 | x4 | x4 | x4 | x4 | x4 | %256
 x4 | x4 | x4 | x4 | x4 | x4 | x4 | x4 | x4 | x4 |] %266

